X: 160
T: No_68_Hunting_Song_(d).krn
N: Derived from No_68_Hunting_Song_(d).krn
%%abc-version 2.0
%%abcx-abcm2ps-target-version 5.9.1 (29 Sep 2008)
%%abc-creator hum2abc beta
%%abcx-conversion-date 2019/03/15 08:29:13
%%humdrum-veritas 993912537
%%humdrum-veritas-data 950562311
%%linebreak <none>
%%barnumbers 0
L: 1/4
M: 2/4
K: Ab clef=bass
[K:clef=bass][M:2/4]B,B, ||  
[M:3/4]C2B,/B,/ | 
A,2E, | 
E,E,2 ||  
[M:2/4]B,B, ||  
[M:3/4]C2B,/B,/ | 
A,2E, ||  
[M:2/4]E,E, ||  
[M:3/4]F,2F, | 
A,B,3//B,// C/B,/ | 
A,F,F, | 
E,7//A,// A,3//A,// | 
F,F,E, ||  
[M:2/4]D,3/F,/ | 
E,3//F,// E,3/8F,/8 | 
E,2 |]  



